gama.ui.shared/icons_svg/dark/navigator/editor.link.svg

<svg height="24.75" viewBox="-885.358 -3555.537 24.75 24.75" width="24.75" xmlns="http://www.w3.org/2000/svg"><g fill="none"><circle cx="-872.983" cy="-3543.162" fill="#666" r="8"/><circle cx="-872.983" cy="-3543.162" r="8"/><circle cx="-872.983" cy="-3543.162" fill="#666" r="8"/><circle cx="-872.983" cy="-3543.162" r="8"/><g fill="#c0e0fe"><path d="m-864.9828-3543.1624c0 4.4211-3.5789 8-8 8-4.421 0-8-3.5789-8-8 0-4.421 3.579-8 8-8 4.4211 0 8 3.579 8 8zm-.8421 0c0-3.9496-3.2084-7.1579-7.1579-7.1579-3.9494 0-7.1579 3.2083-7.1579 7.1579 0 3.9494 3.2085 7.1579 7.1579 7.1579 3.9495 0 7.1579-3.2085 7.1579-7.1579z"/><path d="m-874.5238-3540.493c.1516.177.1347.4464-.0421.598-.1769.1516-.4463.1347-.5979-.042l-2.5263-2.9475c-.1348-.16-.1348-.3875 0-.5475l2.5263-2.9472c.1516-.1768.421-.1938.5979-.0421.1768.1516.1937.421.0421.5979l-2.2905 2.6694 2.2905 2.6695z"/><path d="m-869.1428-3543.1624-2.2905-2.6696c-.1516-.1767-.1347-.446.0421-.5977.1769-.1516.4463-.1348.5979.0421l2.5263 2.9473c.1348.16.1348.3873 0 .5473l-2.5263 2.9475c-.1516.1768-.421.1935-.5979.0421-.1768-.1516-.1937-.4211-.0421-.5979l2.2905-2.6697z"/></g></g></svg>

<?xml version="1.0" encoding="UTF-8" standalone="no"?>
<!DOCTYPE svg PUBLIC "-//W3C//DTD SVG 1.1//EN" "http://www.w3.org/Graphics/SVG/1.1/DTD/svg11.dtd">
<svg xmlns="http://www.w3.org/2000/svg" xmlns:dc="http://purl.org/dc/elements/1.1/" version="1.1" xmlns:xl="http://www.w3.org/1999/xlink" viewBox="-885.3578 -3555.5374 24.75 24.75" width="24.75" height="24.75">
  <defs/>
  <g id="SOURCES" stroke-dasharray="none" stroke-opacity="1" stroke="none" fill="none" fill-opacity="1">
    <title>SOURCES</title>
    <g id="SOURCES_Dark">
      <title>Dark</title>
      <g id="Group_12278">
        <g id="Group_12267">
          <g id="Graphic_12270">
            <circle cx="-872.9828" cy="-3543.1624" r="8.00000702080164" fill="#666"/>
            <circle cx="-872.9828" cy="-3543.1624" r="8.00000702080164" stroke="black" stroke-linecap="round" stroke-linejoin="round" stroke-width="0"/>
          </g>
          <g id="Graphic_12269"/>
          <g id="Graphic_12268">
            <circle cx="-872.9828" cy="-3543.1624" r="8.00000702080164" fill="#666"/>
            <circle cx="-872.9828" cy="-3543.1624" r="8.00000702080164" stroke="black" stroke-linecap="round" stroke-linejoin="round" stroke-width="0"/>
          </g>
        </g>
        <g id="Group_12271">
          <title>arrow-circle-up</title>
          <g id="Graphic_12277">
            <path d="M -864.9828 -3543.1624 C -864.9828 -3538.7413 -868.5617 -3535.1624 -872.9828 -3535.1624 C -877.4038 -3535.1624 -880.9828 -3538.7413 -880.9828 -3543.1624 C -880.9828 -3547.5834 -877.4038 -3551.1624 -872.9828 -3551.1624 C -868.5617 -3551.1624 -864.9828 -3547.5834 -864.9828 -3543.1624 Z M -865.8249 -3543.1624 C -865.8249 -3547.112 -869.0333 -3550.3203 -872.9828 -3550.3203 C -876.9322 -3550.3203 -880.1407 -3547.112 -880.1407 -3543.1624 C -880.1407 -3539.213 -876.9322 -3536.0045 -872.9828 -3536.0045 C -869.0333 -3536.0045 -865.8249 -3539.213 -865.8249 -3543.1624 Z" fill="#c0e0fe"/>
          </g>
          <g id="Group_12272">
            <g id="Group_12275">
              <title>chevron-left</title>
              <g id="Graphic_12276">
                <path d="M -874.5238 -3540.493 C -874.3722 -3540.316 -874.3891 -3540.0466 -874.5659 -3539.895 C -874.7428 -3539.7434 -875.0122 -3539.7603 -875.1638 -3539.937 L -877.6901 -3542.8845 C -877.8249 -3543.0445 -877.8249 -3543.272 -877.6901 -3543.432 L -875.1638 -3546.3792 C -875.0122 -3546.556 -874.7428 -3546.573 -874.5659 -3546.4213 C -874.3891 -3546.2697 -874.3722 -3546.0003 -874.5238 -3545.8234 L -876.8143 -3543.154 L -874.5238 -3540.4845 Z" fill="#c0e0fe"/>
              </g>
            </g>
            <g id="Group_12273">
              <title>chevron-right</title>
              <g id="Graphic_12274">
                <path d="M -869.1428 -3543.1624 L -871.4333 -3545.832 C -871.5849 -3546.0087 -871.568 -3546.278 -871.3912 -3546.4297 C -871.2143 -3546.5813 -870.9449 -3546.5645 -870.7933 -3546.3876 L -868.267 -3543.4403 C -868.1322 -3543.2803 -868.1322 -3543.053 -868.267 -3542.893 L -870.7933 -3539.9455 C -870.9449 -3539.7687 -871.2143 -3539.752 -871.3912 -3539.9034 C -871.568 -3540.055 -871.5849 -3540.3245 -871.4333 -3540.5013 L -869.1428 -3543.171 Z" fill="#c0e0fe"/>
              </g>
            </g>
          </g>
        </g>
      </g>
    </g>
  </g>
</svg>
